X:1
T:Title
%%score ( 1 2 ) { 3 | 4 }
L:1/8
Q:1/4=103
M:4/4
K:G
V:1 treble nm="Grand Piano, Soprano"
V:2 treble 
V:3 bass nm="Choir Pad, Hear the Gospel Call, 1898"
V:4 bass 
V:1
 [Gd]2 [Ge]>[Gd] [GB]2 [DG]>[DA] | [GB]4 [DG]4 | [DG]2 [DG]>[DG] [DG]2 [DF]>[DG] | [FA]6 z2 | %4
w: By~L.~Pinckney~Huggins * * * * *||||
 [GB]2 [GB]>[GA] [DG]2 [DB]>[Dc] | [Gd]4 [GB]4 | [Gc]2 G>[GA] [GB]2 [GB]>[FA] | G6 d>^c | d6 z2 | %9
w: |||||
 B6 z2 | [GB]4- [GB]>[Bd] [Bd]>[GB] | A6 z2 | G6 z2 | c6 z2 | [GB]3 [DG] [GB]2 [FA]2 | G2 E2 D4- | %16
w: |||||||
 D4 z4 |] %17
w: |
V:2
 x8 | x8 | x8 | x8 | x8 | x8 | x8 | x8 | z2 E>E E>d e>d | z z/ G/ G>G G2 [GB]>[FA] | x8 | %11
 F>F F>F F2 B>d | z2 E>E E>G E>G | z z/ G/ G>G G2 [Gc]>[Gc] | x8 | x8 | x8 |] %17
V:3
 B,2 C>B, D2 B,>C | D4 B,4 | B,2 B,>[K:treble]B, D2 C>B, | D6 z2 | D2 D>C[K:bass] B,2 G,>A, | %5
 B,4 D4 | C2 D>E D2 D>C | B,6 z2 | z2 B,>B, B,2 z2 | z z/ D/ D>D D2 z2 | z2 D>D D2 z2 | %11
 z z/ D/ D>D D2 z2 | z2[K:bass] B,>B, B,2 z2 | z z/[K:treble] E/ E>E E2 E>E | D3[K:bass] B, D2 C2 | %15
 B,2 C2 B,4- | B,4 z4 |] %17
V:4
 G,2 G,>G, G,2 G,>G, | G,4 G,4 | G,2 G,>G, B,2 A,>G, | D,6 z2 | G,2 G,>G, G,2 z z/ G,/ | G,4 G,4 | %6
 E,2 B,,>C, D,2 D,>D, | [G,,G,]6 z2 | z2 G,>G, G,2 z2 | z z/ G,/ G,>G, G,2 z2 | z2 G,>G, G,2 z2 | %11
 z z/ D,/ D,>D, D,2 z2 | z2 E,>E, E,2 z2 | z z/ C,/ C,>C, C,2 C,>C, | D,3 D, D,2 D,2 | G,,8- | %16
 G,,4 z4 |] %17

